X:148 
T:Miss Lyons' Fancy (reel) 
T:Early Breakfast
B:CRE3.103 (Rogha InÃÂÃÂÃÂÃÂ­on UÃÂÃÂÃÂÃÂ­ LiathÃÂÃÂÃÂÃÂ¡in)
F:file ID: cre.3/148miss_L
R:reel
L:1/8
Q:180
M:C
K:D
D2FA DAFA|defd eBB2|d2cA BdAF|GBAG (3FED EC|
D2FA DAFA|dff2 eBB2|dBcA (3Bcd AF|GBAG FDD2:|
(3|:aba fd faaf|gfed efge|(3aba fd faaf|gabg fdd2|
(3aba fd faaf|gfed efge|(3fga ec dBAF|1 GBAG FDD2:|\
[2 GBAG FAEF||

%%%

